public/logos/walmart.svg

<svg width="20" height="20" viewBox="0 0 20 20" fill="none" xmlns="http://www.w3.org/2000/svg">
  <rect width="20" height="20" rx="4" fill="#0071CE" />
  <path
    d="M10.0538 7.563C10.3697 7.563 10.6357 7.39811 10.6704 7.1861L10.9835 3.63879C10.9835 3.28753 10.5699 3 10.0538 3C9.53483 3 9.12396 3.28753 9.12396 3.63879L9.43989 7.1861C9.47317 7.39811 9.73781 7.563 10.0538 7.563Z"
    fill="#FFC220" />
  <path
    d="M8.13231 8.67303C8.28886 8.3959 8.27986 8.08828 8.11083 7.9511L5.18705 5.90655C4.88292 5.72918 4.4277 5.9405 4.16721 6.38807C3.9074 6.83495 3.96005 7.33656 4.25796 7.51046L7.49488 9.01114C7.70204 9.08873 7.97293 8.94462 8.13231 8.67026"
    fill="#FFC220" />
  <path
    d="M11.9748 8.67007C12.1404 8.94444 12.4113 9.08855 12.6129 9.01511L15.8498 7.51027C16.1505 7.33291 16.1955 6.83614 15.9413 6.38927C15.6815 5.9417 15.2235 5.73177 14.92 5.90567L11.9956 7.94814C11.8335 8.0874 11.8217 8.39641 11.9782 8.67285"
    fill="#FFC220" />
  <path
    d="M10.0538 11.994C10.3697 11.994 10.6357 12.1589 10.6704 12.3709L10.9835 15.9182C10.9835 16.2695 10.5699 16.5543 10.0538 16.5543C9.53483 16.5543 9.12396 16.2695 9.12396 15.9182L9.43989 12.3709C9.47317 12.1589 9.73781 11.994 10.0538 11.994Z"
    fill="#FFC220" />
  <path
    d="M11.9748 10.8872C12.1404 10.6121 12.4113 10.4652 12.6129 10.5449L15.8498 12.047C16.1505 12.2209 16.1955 12.7218 15.9413 13.1694C15.6815 13.6135 15.2235 13.8248 14.92 13.6509L11.9956 11.6056C11.8335 11.4678 11.8217 11.1601 11.9782 10.8872"
    fill="#FFC220" />
  <path
    d="M8.13231 10.8841C8.28886 11.1606 8.27986 11.4675 8.11083 11.6061L5.18705 13.6479C4.88292 13.8252 4.4277 13.6132 4.16721 13.1691C3.9074 12.7222 3.96005 12.2206 4.25796 12.0467L7.49488 10.5447C7.70204 10.4657 7.97293 10.6112 8.13231 10.8841Z"
    fill="#FFC220" />
</svg>

<svg xmlns="http://www.w3.org/2000/svg" fill="none" viewBox="0 0 20 20">
  <rect width="20" height="20" fill="#0071CE" rx="4" />
  <path fill="#FFC220"
    d="M10.054 7.563c.316 0 .582-.165.616-.377l.313-3.547c0-.351-.413-.639-.93-.639-.518 0-.929.288-.929.639l.316 3.547c.033.212.298.377.614.377ZM8.132 8.673c.157-.277.148-.585-.021-.722L5.187 5.907c-.304-.178-.76.034-1.02.481-.26.447-.207.949.091 1.122l3.237 1.501c.207.078.478-.066.637-.34M11.975 8.67c.165.274.436.419.638.345L15.85 7.51c.3-.177.345-.674.091-1.12-.26-.448-.718-.658-1.021-.484l-2.924 2.042c-.162.14-.174.448-.018.725M10.054 11.994c.316 0 .582.165.616.377l.313 3.547c0 .352-.413.636-.93.636-.518 0-.929-.284-.929-.636l.316-3.547c.033-.212.298-.377.614-.377ZM11.975 10.887c.165-.275.436-.422.638-.342l3.237 1.502c.3.174.345.675.091 1.122-.26.444-.718.656-1.021.482l-2.924-2.045c-.162-.138-.174-.446-.018-.719M8.132 10.884c.157.277.148.583-.021.722l-2.924 2.042c-.304.177-.76-.035-1.02-.479-.26-.447-.207-.948.091-1.122l3.237-1.502c.207-.08.478.066.637.34Z" />
</svg>
